mobile/apps/auth/assets/custom-icons/icons/snapchat.svg

<svg width="500" height="500" viewBox="0 0 500 500" fill="none" xmlns="http://www.w3.org/2000/svg">
<path d="M464.522 368.578C387.094 331.097 374.754 273.228 374.204 268.935C373.54 263.736 372.786 259.648 378.522 254.359C384.054 249.249 408.594 234.06 415.403 229.308C426.657 221.439 431.614 213.582 427.96 203.925C425.405 197.243 419.184 194.727 412.631 194.727C410.563 194.733 408.503 194.964 406.486 195.417C394.12 198.099 382.112 204.295 375.162 205.969C374.327 206.184 373.47 206.3 372.607 206.313C368.903 206.313 367.498 204.666 367.855 200.207C368.724 186.691 370.563 160.312 368.43 135.669C365.505 101.765 354.569 84.9663 341.603 70.1093C335.331 62.9043 306.204 31.9512 249.996 31.9512C193.787 31.9512 164.699 62.9043 158.465 70.0199C145.46 84.8769 134.538 101.676 131.638 135.58C129.504 160.222 131.421 186.589 132.213 200.118C132.468 204.359 131.165 206.224 127.46 206.224C126.598 206.209 125.741 206.094 124.905 205.879C117.969 204.206 105.961 198.01 93.5946 195.327C91.5774 194.875 89.5171 194.644 87.4499 194.637C80.8709 194.637 74.6752 197.192 72.1202 203.835C68.4667 213.493 73.3977 221.349 84.6906 229.219C91.4995 233.971 116.04 249.147 121.571 254.27C127.294 259.559 126.553 263.646 125.889 268.846C125.34 273.202 112.987 331.071 35.5717 368.489C31.0367 370.686 23.3208 375.336 36.9259 382.847C58.2852 394.651 72.5035 393.387 83.5536 400.502C92.9303 406.545 87.3861 419.575 94.2078 424.276C102.588 430.063 127.358 423.867 159.359 434.432C186.186 443.272 202.486 468.247 250.059 468.247C297.633 468.247 314.406 443.157 340.76 434.432C372.697 423.867 397.518 430.063 405.911 424.276C412.72 419.575 407.189 406.545 416.565 400.502C427.615 393.387 441.821 394.651 463.193 382.847C476.773 375.425 469.057 370.775 464.522 368.578Z" fill="white"/>
<path d="M498.208 364.171C494.734 354.717 488.116 349.659 480.579 345.469C479.161 344.638 477.858 343.974 476.747 343.463C474.499 342.3 472.199 341.176 469.912 339.988C446.42 327.533 428.075 311.82 415.352 293.194C411.738 287.951 408.604 282.393 405.988 276.587C404.902 273.483 404.953 271.72 405.732 270.11C406.505 268.87 407.527 267.805 408.734 266.981C412.771 264.311 416.936 261.602 419.759 259.776C424.792 256.518 428.778 253.938 431.346 252.111C440.99 245.366 447.736 238.199 451.951 230.189C454.893 224.656 456.608 218.553 456.98 212.297C457.353 206.041 456.374 199.779 454.11 193.935C447.723 177.123 431.844 166.686 412.605 166.686C408.547 166.682 404.5 167.111 400.533 167.964C399.473 168.194 398.412 168.436 397.378 168.705C397.556 157.207 397.301 145.071 396.279 133.127C392.651 91.1365 377.947 69.1256 362.618 51.5732C352.801 40.574 341.238 31.2685 328.394 24.0308C305.131 10.7451 278.751 4.00006 249.995 4.00006C221.24 4.00006 194.988 10.7451 171.699 24.0308C158.824 31.2707 147.238 40.5949 137.412 51.6243C122.082 69.1767 107.378 91.2259 103.75 133.178C102.728 145.123 102.473 157.322 102.639 168.756C101.604 168.487 100.557 168.245 99.4964 168.015C95.5291 167.162 91.4823 166.734 87.4243 166.737C68.1728 166.737 52.2682 177.174 45.9064 193.986C43.6324 199.832 42.6437 206.099 43.0074 212.362C43.3711 218.624 45.0788 224.735 48.0142 230.279C52.2427 238.289 58.9877 245.455 68.6327 252.2C71.1876 253.989 75.1861 256.569 80.2193 259.865C82.9404 261.628 86.9133 264.209 90.8096 266.789C92.1728 267.67 93.3315 268.833 94.2077 270.2C95.0253 271.873 95.0508 273.675 93.8372 276.996C91.2559 282.679 88.1736 288.122 84.6266 293.258C72.184 311.462 54.3761 326.894 31.637 339.247C19.5905 345.635 7.07124 349.901 1.7825 364.273C-2.20322 375.119 0.402827 387.459 10.5332 397.858C14.2511 401.739 18.5634 405.003 23.3079 407.528C33.1801 412.954 43.6777 417.153 54.5677 420.035C56.815 420.614 58.9485 421.569 60.8784 422.858C64.5703 426.09 64.0465 430.957 68.9648 438.085C71.4337 441.769 74.5707 444.958 78.2137 447.488C88.5357 454.616 100.135 455.063 112.424 455.536C123.526 455.957 136.109 456.443 150.48 461.182C156.433 463.149 162.616 466.956 169.783 471.402C186.991 481.979 210.547 496.453 249.97 496.453C289.393 496.453 313.115 481.903 330.451 471.287C337.566 466.918 343.711 463.149 349.498 461.233C363.869 456.481 376.453 456.008 387.554 455.587C399.843 455.114 411.443 454.667 421.765 447.539C426.079 444.53 429.674 440.604 432.291 436.041C435.83 430.024 435.74 425.822 439.062 422.883C440.872 421.656 442.876 420.74 444.989 420.175C456.028 417.285 466.668 413.046 476.67 407.554C481.711 404.85 486.249 401.297 490.084 397.053L490.212 396.9C499.716 386.731 502.105 374.748 498.208 364.171ZM463.167 383.001C441.795 394.805 427.59 393.54 416.54 400.655C407.15 406.698 412.707 419.728 405.886 424.429C397.505 430.216 372.735 424.02 340.734 434.585C314.342 443.31 297.505 468.4 250.034 468.4C202.563 468.4 186.122 443.361 159.295 434.521C127.358 423.956 102.537 430.152 94.1438 424.365C87.3349 419.664 92.8663 406.634 83.4897 400.592C72.4268 393.476 58.2213 394.741 36.8619 383.001C23.2568 375.489 30.9728 370.839 35.5078 368.642C112.923 331.161 125.276 273.291 125.825 268.999C126.489 263.8 127.23 259.712 121.507 254.423C115.976 249.313 91.4356 234.124 84.6266 229.372C73.3593 221.503 68.4027 213.646 72.0563 203.988C74.6112 197.307 80.8453 194.791 87.386 194.791C89.4531 194.797 91.5135 195.028 93.5306 195.481C105.897 198.163 117.905 204.359 124.841 206.032C125.677 206.247 126.534 206.363 127.396 206.377C131.101 206.377 132.404 204.512 132.149 200.271C131.357 186.743 129.44 160.376 131.574 135.733C134.499 101.829 145.422 85.0302 158.401 70.1732C164.635 63.0321 193.927 32.0789 249.944 32.0789C305.962 32.0789 335.331 62.9043 341.565 70.0199C354.557 84.8769 365.492 101.676 368.392 135.58C370.525 160.222 368.686 186.602 367.817 200.118C367.523 204.576 368.864 206.224 372.569 206.224C373.431 206.21 374.289 206.094 375.124 205.879C382.073 204.206 394.082 198.01 406.448 195.327C408.465 194.875 410.525 194.644 412.592 194.637C419.171 194.637 425.367 197.192 427.922 203.835C431.576 213.493 426.644 221.349 415.364 229.219C408.555 233.971 384.015 249.147 378.484 254.27C372.748 259.559 373.502 263.646 374.166 268.846C374.715 273.202 387.056 331.071 464.483 368.489C469.057 370.775 476.773 375.425 463.167 383.001Z" fill="black"/>
</svg>

<svg xmlns="http://www.w3.org/2000/svg" fill="none" viewBox="0 0 500 500"><path fill="#fff" d="M464.522 368.578c-77.428-37.481-89.768-95.35-90.318-99.643-.664-5.199-1.418-9.287 4.318-14.576 5.532-5.11 30.072-20.299 36.881-25.051 11.254-7.869 16.211-15.726 12.557-25.383-2.555-6.682-8.776-9.198-15.329-9.198a28.414 28.414 0 0 0-6.145.69c-12.366 2.682-24.374 8.878-31.324 10.552-.835.215-1.692.331-2.555.344-3.704 0-5.109-1.647-4.752-6.106.869-13.516 2.708-39.895.575-64.538-2.925-33.904-13.861-50.703-26.827-65.56-6.272-7.205-35.399-38.158-91.607-38.158-56.209 0-85.297 30.953-91.531 38.069-13.005 14.857-23.927 31.656-26.827 65.56-2.134 24.642-.217 51.009.575 64.538.255 4.241-1.048 6.106-4.753 6.106a11.024 11.024 0 0 1-2.555-.345c-6.936-1.673-18.944-7.869-31.31-10.552a28.544 28.544 0 0 0-6.145-.69c-6.58 0-12.775 2.555-15.33 9.198-3.653 9.658 1.278 17.514 12.57 25.384 6.81 4.752 31.35 19.928 36.881 25.051 5.723 5.289 4.982 9.376 4.318 14.576-.549 4.356-12.902 62.225-90.317 99.643-4.535 2.197-12.251 6.847 1.354 14.358 21.36 11.804 35.578 10.54 46.628 17.655 9.376 6.043 3.832 19.073 10.654 23.774 8.38 5.787 33.15-.409 65.151 10.156 26.827 8.84 43.127 33.815 90.7 33.815 47.574 0 64.347-25.09 90.701-33.815 31.937-10.565 56.758-4.369 65.151-10.156 6.809-4.701 1.278-17.731 10.654-23.774 11.05-7.115 25.256-5.851 46.628-17.655 13.58-7.422 5.864-12.072 1.329-14.269Z"/><path fill="#000" d="M498.208 364.171c-3.474-9.454-10.092-14.512-17.629-18.702a43.981 43.981 0 0 0-3.832-2.006c-2.248-1.163-4.548-2.287-6.835-3.475-23.492-12.455-41.837-28.168-54.56-46.794a105.952 105.952 0 0 1-9.364-16.607c-1.086-3.104-1.035-4.867-.256-6.477a10.538 10.538 0 0 1 3.002-3.129c4.037-2.67 8.202-5.379 11.025-7.205 5.033-3.258 9.019-5.838 11.587-7.665 9.644-6.745 16.39-13.912 20.605-21.922a43.638 43.638 0 0 0 2.159-36.254c-6.387-16.812-22.266-27.249-41.505-27.249a57.16 57.16 0 0 0-12.072 1.278c-1.06.23-2.121.472-3.155.741.178-11.498-.077-23.634-1.099-35.578-3.628-41.99-18.332-64.001-33.661-81.554a134.14 134.14 0 0 0-34.224-27.542C305.131 10.745 278.751 4 249.995 4c-28.755 0-55.007 6.744-78.296 20.03a133.66 133.66 0 0 0-34.287 27.593c-15.33 17.553-30.034 39.602-33.662 81.554-1.022 11.945-1.277 24.144-1.111 35.578a79.283 79.283 0 0 0-3.143-.741 57.229 57.229 0 0 0-12.072-1.278c-19.251 0-35.156 10.437-41.518 27.249a43.7 43.7 0 0 0 2.108 36.293c4.229 8.01 10.974 15.176 20.619 21.921 2.555 1.789 6.553 4.369 11.586 7.665a1301.22 1301.22 0 0 1 10.59 6.924 11.36 11.36 0 0 1 3.399 3.411c.817 1.673.843 3.475-.37 6.796a105.113 105.113 0 0 1-9.211 16.262c-12.443 18.204-30.25 33.636-52.99 45.989-12.047 6.388-24.566 10.654-29.855 25.026-3.985 10.846-1.38 23.186 8.751 33.585a50.63 50.63 0 0 0 12.775 9.67 138.419 138.419 0 0 0 31.26 12.507 20.63 20.63 0 0 1 6.31 2.823c3.692 3.232 3.168 8.099 8.087 15.227a35.531 35.531 0 0 0 9.249 9.403c10.322 7.128 21.921 7.575 34.21 8.048 11.102.421 23.685.907 38.056 5.646 5.953 1.967 12.136 5.774 19.303 10.22 17.208 10.577 40.764 25.051 80.187 25.051 39.423 0 63.145-14.55 80.481-25.166 7.115-4.369 13.26-8.138 19.047-10.054 14.371-4.752 26.955-5.225 38.056-5.646 12.289-.473 23.889-.92 34.211-8.048a35.633 35.633 0 0 0 10.526-11.498c3.539-6.017 3.449-10.219 6.771-13.158a19.578 19.578 0 0 1 5.927-2.708 138.924 138.924 0 0 0 31.681-12.621 49.822 49.822 0 0 0 13.414-10.501l.128-.153c9.504-10.169 11.893-22.152 7.996-32.729Zm-35.041 18.83c-21.372 11.804-35.577 10.539-46.627 17.654-9.39 6.043-3.833 19.073-10.654 23.774-8.381 5.787-33.151-.409-65.152 10.156-26.392 8.725-43.229 33.815-90.7 33.815-47.471 0-63.912-25.039-90.739-33.879-31.937-10.565-56.758-4.369-65.151-10.156-6.81-4.701-1.278-17.731-10.654-23.773-11.063-7.116-25.269-5.851-46.628-17.591-13.605-7.512-5.89-12.162-1.354-14.359 77.415-37.481 89.768-95.351 90.317-99.643.664-5.199 1.405-9.287-4.318-14.576-5.531-5.11-30.071-20.299-36.88-25.051-11.268-7.869-16.224-15.726-12.57-25.384 2.554-6.681 8.788-9.197 15.329-9.197 2.067.006 4.127.237 6.145.69 12.366 2.682 24.374 8.878 31.31 10.551a10.97 10.97 0 0 0 2.555.345c3.705 0 5.008-1.865 4.753-6.106-.792-13.528-2.709-39.895-.575-64.538 2.925-33.904 13.848-50.703 26.827-65.56 6.234-7.14 35.526-38.094 91.543-38.094 56.018 0 85.387 30.825 91.621 37.94 12.992 14.858 23.927 31.657 26.827 65.561 2.133 24.642.294 51.022-.575 64.538-.294 4.458 1.047 6.106 4.752 6.106.862-.014 1.72-.13 2.555-.345 6.949-1.673 18.958-7.869 31.324-10.552a28.538 28.538 0 0 1 6.144-.69c6.579 0 12.775 2.555 15.33 9.198 3.654 9.658-1.278 17.514-12.558 25.384-6.809 4.752-31.349 19.928-36.88 25.051-5.736 5.289-4.982 9.376-4.318 14.576.549 4.356 12.89 62.225 90.317 99.643 4.574 2.286 12.29 6.936-1.316 14.512Z"/></svg>
